GeneralPlan/dist/assets/img/quotation.svg

<svg width="37" height="34" viewBox="0 0 37 34" fill="none" xmlns="http://www.w3.org/2000/svg">
<path opacity="0.4" d="M0 34C0 31.9394 0 29.8788 0 27.8182C0 25.6717 0 23.5682 0 21.5076C0 14.8965 0.922903 9.70202 2.76871 5.92424C4.61451 2.14647 7.84467 0.17172 12.4592 0L14.8503 5.02273C12.2494 5.2803 10.4456 6.56818 9.43878 8.88636C8.51587 11.1187 8.05442 14.6818 8.05442 19.5758H14.7245V34H0ZM22.1497 34C22.1497 31.9394 22.1497 29.8788 22.1497 27.8182C22.1497 25.6717 22.1497 23.5682 22.1497 21.5076C22.1497 14.8965 23.0726 9.70202 24.9184 5.92424C26.7642 2.14647 29.9943 0.17172 34.6088 0L37 5.02273C34.3991 5.2803 32.5952 6.56818 31.5884 8.88636C30.6655 11.1187 30.2041 14.6818 30.2041 19.5758H36.8741V34H22.1497Z" fill="#9B9B9B"/>
</svg>

<svg width="37" height="34" fill="none" xmlns="http://www.w3.org/2000/svg"><path opacity=".4" d="M0 34V21.508C0 14.897.923 9.702 2.769 5.924 4.615 2.146 7.845.172 12.459 0l2.391 5.023c-2.6.257-4.404 1.545-5.411 3.863-.923 2.233-1.385 5.796-1.385 10.69h6.67V34H0zm22.15 0V21.508c0-6.611.923-11.806 2.768-15.584C26.764 2.146 29.994.172 34.608 0L37 5.023c-2.6.257-4.405 1.545-5.412 3.863-.922 2.233-1.384 5.796-1.384 10.69h6.67V34H22.15z" fill="#9B9B9B"/></svg>
